flaticon/interaction/bookmark-4.svg

<svg xmlns="http://www.w3.org/2000/svg" width="32" height="32" viewBox="0 0 24 24">
    <path d="M 22.152344 22.558594 L 17.078125 13.855469 C 16.902344 13.558594 16.59375 13.378906 16.25 13.378906 C 15.902344 13.378906 15.59375 13.558594 15.421875 13.855469 L 10.34375 22.558594 C 10.167969 22.859375 10.167969 23.21875 10.339844 23.519531 C 10.515625 23.820312 10.824219 24 11.171875 24 L 21.324219 24 C 21.671875 24 21.984375 23.820312 22.15625 23.519531 C 22.332031 23.21875 22.328125 22.859375 22.152344 22.558594 Z M 21.414062 23.09375 C 21.402344 23.117188 21.375 23.144531 21.324219 23.144531 L 11.171875 23.144531 C 11.125 23.144531 11.097656 23.117188 11.085938 23.09375 C 11.070312 23.066406 11.058594 23.03125 11.085938 22.988281 L 16.160156 14.289062 C 16.183594 14.246094 16.222656 14.238281 16.25 14.238281 C 16.277344 14.238281 16.3125 14.246094 16.335938 14.289062 L 21.414062 22.988281 C 21.4375 23.03125 21.425781 23.066406 21.414062 23.09375 Z M 21.414062 23.09375"/>
    <path d="M16.285156 16.285156C16.046875 16.285156 15.855469 16.476562 15.855469 16.714844L15.855469 20.144531C15.855469 20.378906 16.046875 20.570312 16.285156 20.570312 16.523438 20.570312 16.714844 20.378906 16.714844 20.144531L16.714844 16.714844C16.714844 16.476562 16.523438 16.285156 16.285156 16.285156zM15.980469 21.554688C15.902344 21.632812 15.855469 21.746094 15.855469 21.855469 15.855469 21.96875 15.902344 22.078125 15.980469 22.160156 16.0625 22.242188 16.175781 22.285156 16.285156 22.285156 16.398438 22.285156 16.507812 22.242188 16.589844 22.160156 16.671875 22.078125 16.714844 21.96875 16.714844 21.855469 16.714844 21.746094 16.667969 21.632812 16.589844 21.554688 16.425781 21.394531 16.144531 21.394531 15.980469 21.554688zM11.0625 19.113281C11.230469 18.945312 11.230469 18.675781 11.0625 18.507812L9 16.445312 2.570312 22.871094 2.570312 5.570312 15.429688 5.570312 15.429688 11.570312C15.429688 11.808594 15.621094 12 15.855469 12 16.09375 12 16.285156 11.808594 16.285156 11.570312L16.285156 0 1.714844 0 1.714844 23.332031C1.714844 23.601562 1.875 23.84375 2.125 23.949219 2.207031 23.984375 2.296875 24 2.382812 24 2.554688 24 2.722656 23.933594 2.851562 23.804688L9 17.65625 10.457031 19.113281C10.625 19.28125 10.894531 19.28125 11.0625 19.113281zM2.570312.855469L15.429688.855469 15.429688 4.714844 2.570312 4.714844zM2.570312.855469"/>
</svg>

<svg xmlns="http://www.w3.org/2000/svg" width="32" height="32" viewBox="0 0 24 24">
    <path d="M22.152 22.559l-5.074-8.704a.956.956 0 0 0-1.656 0l-5.078 8.704a.95.95 0 0 0-.004.96c.176.301.484.481.832.481h10.152c.348 0 .66-.18.832-.48a.941.941 0 0 0-.004-.961zm-.738.535c-.012.023-.039.05-.09.05H11.172a.093.093 0 0 1-.086-.05c-.016-.028-.027-.063 0-.106l5.074-8.699a.096.096 0 0 1 .09-.05c.027 0 .063.007.086.05l5.078 8.7c.023.042.012.077 0 .105zm0 0"/>
    <path d="M16.285 16.285a.428.428 0 0 0-.43.43v3.43c0 .234.192.425.43.425s.43-.191.43-.425v-3.43a.428.428 0 0 0-.43-.43zm0 0M15.98 21.555a.436.436 0 0 0-.125.3c0 .114.047.223.125.305a.435.435 0 0 0 .61 0 .428.428 0 0 0 0-.605.446.446 0 0 0-.61 0zm0 0M11.063 19.113a.427.427 0 0 0 0-.605L9 16.445l-6.43 6.426v-17.3h12.86v6a.428.428 0 1 0 .855 0V0H1.715v23.332a.668.668 0 0 0 .668.668.66.66 0 0 0 .469-.195L9 17.656l1.457 1.457a.427.427 0 0 0 .605 0zM2.57.855h12.86v3.86H2.57zm0 0"/>
</svg>
